!!!COM: Lannoy, Colinet de
!!!CDT: ~1450-<1497/02/06
!!!COA:	Josquin des Prez
!!!CDT:	~1450-1521/08/27
!!!OTL:	Cela sans plus
!!!AGN:	Chanson
!!!SCT:	NJE 27.4
!!!SCA:	New Josquin Edition 27.4
!!!voices:	3
**kern	**kern	**kern
*staff3	*staff2	*staff1
*Ivox	*Ivox	*Ivox
*I"Contra	*I"Tenor	*I"Superius
*I'C	*I'T	*I'S
*clefGv2	*clefGv2	*clefG2
*k[]	*k[]	*k[]
*M2/1	*M2/1	*M2/1
*met(C|)	*met(C|)	*met(C|)
=1-	=1-	=1-
0g	0r	0r
=2	=2	=2
1f	0r	0r
1e	.	.
=3	=3	=3
0d	0r	0dd
=4	=4	=4
0r	0r	1cc
.	.	1b
=5	=5	=5
0f	0d	0a
=6	=6	=6
1g	1c	0r
1g	1B	.
=7	=7	=7
2.a\	0A	0cc
4g\	.	.
2e\	.	.
2f\	.	.
=8	=8	=8
2g\	0r	1.b
2d\	.	.
4e\	.	.
4d\	.	.
4c\	.	4a/
4B\	.	4g/
=9	=9	=9
2A/	0c	1a
1F	.	.
.	.	1a
4E/	.	.
4F/	.	.
=10	=10	=10
2G/	1.B	2g/
2.g\	.	4f/
.	.	4e/
.	.	2d/
4f\	.	.
4e\	4A/	[2g/
4d\	4G/	.
=11	=11	=11
2c\	1A	2g/]
1d	.	2f#i/
.	1A	2f#i/
2c\	.	2e/
=12	=12	=12
1.d	[0G	0g
[2e\	.	.
=13	=13	=13
2e\]	0G]	0r
4d\	.	.
4c\	.	.
1B	.	.
=14	=14	=14
1A	0r	0cc
2r	.	.
[2a\	.	.
=15	=15	=15
2a\]	0r	1cc
2g\	.	.
1f	.	1dd
=16	=16	=16
2.e\	0c	0ee
4f\	.	.
2g\	.	.
[2a\	.	.
=17	=17	=17
2a\]	1c	1ee
2g\	.	.
2f\	1d	1ff
4e\	.	.
4d\	.	.
=18	=18	=18
0c	0e	1.gg
.	.	2ff\
=19	=19	=19
0r	1e	2ee\
.	.	4dd\
.	.	4cc\
.	1f	1dd
=20	=20	=20
1G	1.g	2ee\
.	.	2.dd\
1B	.	.
.	.	4cc\
.	2f\	4b\
.	.	4a/
=21	=21	=21
2c\	2e\	2g/
4B\	4d\	1cc
4A/	4c\	.
1G	1d	.
.	.	2b\
=22	=22	=22
1r	[0c	0cc
[1g	.	.
=23	=23	=23
2g\]	0c_	0r
2f\	.	.
[1e	.	.
=24	=24	=24
2e\]	0c]	1.gg
2d\	.	.
[1c	.	.
.	.	2ff\
=25	=25	=25
1c]	0r	1ee
1d	.	1dd
=26	=26	=26
2e\	0r	[0cc
2f\	.	.
2e\	.	.
[2a\	.	.
=27	=27	=27
2a\]	0r	1cc]
4g\	.	.
4f\	.	.
1e	.	1cc
=28	=28	=28
2d\	0r	1.dd
1f	.	.
2e\	.	2cc\
=29	=29	=29
2d\	0r	2b\
1g	.	4a/
.	.	4g/
.	.	1a
2f\	.	.
=30	=30	=30
2e\	1.g	1g
4d\	.	.
4c\	.	.
2.B\	.	2r
.	2f\	[2dd\
4A/	.	.
=31	=31	=31
1c	1e	4dd\]
.	.	4cc\
.	.	1cc
1G	1d	.
.	.	2b\
=32	=32	=32
2r	[0c	0cc
2.A/	.	.
4B\	.	.
4c\	.	.
4d\	.	.
=33	=33	=33
2.e\	1c]	0r
4f\	.	.
2g\	1c	.
[2a\	.	.
=34	=34	=34
4a\]	1.d	0r
4g\	.	.
1f	.	.
2e\	2c\	.
=35	=35	=35
2d\	2B\	0r
1g	4A/	.
.	4G/	.
.	1A	.
2f#i\	.	.
=36	=36	=36
1g	1G	0r
1f	2r	.
.	[2d\	.
=37	=37	=37
1e	4d\]	0r
.	4c\	.
.	1c	.
1d	.	.
.	2B\	.
=38	=38	=38
2e\	0c	0cc
1g	.	.
4f\	.	.
4e\	.	.
=39	=39	=39
2.d\	0r	1dd
4B\	.	.
4c\	.	1b
4B\	.	.
4A/	.	.
4G/	.	.
=40	=40	=40
1F	0c	0a
1r	.	.
=41	=41	=41
1f	1d	0r
1g	1B	.
=42	=42	=42
1a	0A	0cc
2f\	.	.
[2e\	.	.
=43	=43	=43
4e\]	0r	1.b
4f\	.	.
2.g\	.	.
4f\	.	.
4d\	.	4a/
4e\	.	4g/
=44	=44	=44
2f\	0c	2a/
1e	.	1g
4d\	.	4f/
4c\	.	4e/
=45	=45	=45
2f\	1.B	1d
2.g\	.	.
.	.	[1g
4f\	.	.
4e\	4A/	.
4d\	4G/	.
=46	=46	=46
0c	1A	2g/]
.	.	2f#i/
.	1A	2f#i/
.	.	2e/
=47	=47	=47
0dl	0Gl	0gl
==	==	==
*-	*-	*-
!!!RDF**kern: l=long note in original notation
!!!RDF**kern: i=editorial accidental
!!!RDF**kern: V=start of tuplet marker
!!!RDF**kern: Z=end of tuplet marker
!!!ENC:	Victoria Chang 2012/03/27
!!!END:	2012/03/27/
!!!EED:	Jesse Rodin
!!!EEV:	2012/03/28/
!!attribution-level@Jos: 5 (doubtful)
!!!ONB:	Translated from MusicXML and edited on 2012/03/28/ by Craig Sapp
!!muse2ps: C^@{COM}\n@{SCT}^i2I150v85,85,150Q16
